X: 422
%
T: Miss Rose of Tarlogie
C:From J.T. Surennes Collection
O:Scotland
B:Keith Norman MacDonald : "The Skye collection of the best reels & strathspeys extant" : 1887
Z:Ralph Palmer
R:Reel
M:C
L:1/8
K:A
"+"E | CA,CE A2 EA | FAEC DB,B,E | CA,C"+"E FG"+"AB | cfed c"+"A"+"AE | CA,CE A2 EA |
EAEC DB,B,E | CA,C"+"E FG"+"AB | cfed cAA || "4"e | ((3cBA) eA cAe"+"A | GEBE dEBE |
((3cBA) eA cAeA | GEdB cAAe | ((3cBA) eA cAeA | GEBE dE"1"BE | "2"c"+"efg "+"a"2"ec"+"A | "1"FdcB cAA |]


